X: 36023
T: Scan , The
R: waltz
M: 3/4
K: Gmajor
ef|"G"gd BGDB,|"G7"G,B,DEDB,|"C"C2ECEG|"Am"c3B AG|
"D7"F2D3F|d2e2d2|"G"B2{B/c/}BABc|B4ef|
gd BGDB,|"G7"G,B,DEDB,|"C"C2ECEG|"Am"c3B AG|
"D7"F2D3F|A2B2A2|"G"G3AG2|G4||
D2|"G"G3A Bc|"G7"d2B2G2|"C"c2{c/d/}cBcd|"Am"e4 (3fge|
"D7"d2fgaf|d2fgaf|"G"g2ga ge|d4D2|
G3A Bc|"G7"d2B2G2|"C"c2 {c/d/}cBcd|e4 (3fge|
"D7"d2fgaf|d2 fgaf|"G"g2gfga|g4:|

